<?xml version="1.0" encoding="UTF-8"?>
<map version="1.10" tiledversion="1.11.2" orientation="orthogonal" renderorder="right-down" width="5" height="20" tilewidth="16" tileheight="16" infinite="0" nextlayerid="4" nextobjectid="1">
 <tileset firstgid="1" source="tiles_Advanced.tsx"/>
 <layer id="2" name="Edges" width="5" height="20">
  <data encoding="csv">
1157,0,0,0,1155,
1157,0,0,0,1155,
1157,0,0,1147,1155,
1157,0,0,0,1155,
1157,0,0,0,1155,
1157,0,0,0,1155,
1157,0,0,0,1155,
1157,0,0,0,1155,
1157,0,0,0,1155,
1157,0,0,0,1155,
1157,0,0,0,1155,
1157,0,0,0,1155,
1157,0,0,0,1155,
1157,0,0,0,1155,
1157,0,0,0,1155,
1157,0,0,0,1155,
1157,0,0,0,1155,
1157,0,0,0,1155,
1157,0,0,0,1155,
1157,0,0,0,1163
</data>
 </layer>
 <layer id="1" name="Land" width="5" height="20">
  <data encoding="csv">
0,220,4719,219,0,
0,209,4719,210,0,
0,209,4719,210,0,
0,209,4719,210,0,
0,209,4719,210,0,
0,209,4719,210,0,
0,209,4719,210,0,
0,209,4719,210,0,
0,209,4719,210,0,
0,209,4719,210,0,
0,209,4719,210,0,
0,209,4719,210,0,
0,209,4719,210,0,
0,209,4719,210,0,
0,209,4719,210,0,
0,209,4719,210,0,
0,209,4719,210,0,
0,209,4719,210,0,
0,209,4719,210,0,
0,217,4719,218,0
</data>
 </layer>
 <layer id="3" name="Decorations" width="5" height="20">
  <data encoding="csv">
0,0,4726,0,0,
0,0,4726,0,0,
0,0,4726,0,0,
0,0,4726,0,0,
0,0,4743,0,0,
0,0,4726,0,0,
0,0,4743,0,0,
0,0,4726,0,0,
0,0,4743,0,0,
0,0,4726,0,0,
0,0,4726,0,0,
0,0,4743,0,0,
0,0,4726,0,0,
0,0,4743,0,0,
0,0,4726,0,0,
0,0,4743,0,0,
0,0,4726,0,0,
0,0,4743,0,0,
0,0,4726,0,0,
0,0,4726,0,0
</data>
 </layer>
</map>
